Origami/48x48/apps/com.github.davidmhewitt.torrential.svg

<svg width="48" height="48" version="1" xmlns="http://www.w3.org/2000/svg">
 <rect transform="matrix(0,-1,-1,0,0,0)" x="-44" y="-44" width="40" height="40" rx="2" ry="2" style="fill:#5aa9f0"/>
 <path d="m6 4c-1.108 0-2 0.892-2 2v1c0-1.108 0.892-2 2-2h36c1.108 0 2 0.892 2 2v-1c0-1.108-0.892-2-2-2h-36z" fill="#fff" opacity=".2"/>
 <path d="m6 45c-1.108 0-2-0.892-2-2v-1c0 1.108 0.892 2 2 2h36c1.108 0 2-0.892 2-2v1c0 1.108-0.892 2-2 2h-36z" opacity=".2"/>
 <path d="m20 29.080078h8v-17.041016c-0.159842 1.027522-1.302734 1.041016-1.302734 1.041016s-1.332032 6.42e-4 -1.332032-1.273438c0-1.27409-0.333984-1.726562-1.333984-1.726562s-1.333984 0.452473-1.333984 1.726562c0 1.27408-1.332032 1.273438-1.332032 1.273438s-1.333984 0.0016-1.333984-1.273438c0 0-0.03125 12.654606-0.03125 17.273438z" style="fill:#ffffff;opacity:.2"/>
 <path d="M 21.33334,16 C 21.33334,16 20,15.999 20,17.27408 V 26 h 8 V 17.27408 C 28,16 26.66667,16 26.66667,16 c 0,0 -1.33334,0 -1.33334,1.27408 C 25.33333,18.54817 25,19 24,19 23,19 22.66667,18.54817 22.66667,17.27408 22.66667,16 21.33334,16 21.33334,16 Z" style="fill:#ffffff;opacity:.5"/>
 <path d="m24 22c-1 0-1.333984 0.454255-1.333984 1.734375 0 1.280111-1.332032 1.265625-1.332032 1.265625s-1.333984 0.015472-1.333984-1.265625v4.265625h-6l10 11 10-11h-6v-4.265625c0 1.28011-1.333984 1.265625-1.333984 1.265625s-1.332032 0.01449-1.332032-1.265625c0-1.280119-0.333984-1.734375-1.333984-1.734375z" style="opacity:.2"/>
 <path d="m24 21c-1 0-1.333984 0.454255-1.333984 1.734375 0 1.280111-1.332032 1.265625-1.332032 1.265625s-1.333984 0.015472-1.333984-1.265625v4.265625h-6l10 11 10-11h-6v-4.265625c0 1.28011-1.333984 1.265625-1.333984 1.265625s-1.332032 0.01449-1.332032-1.265625c0-1.280119-0.333984-1.734375-1.333984-1.734375z" style="fill:#ffffff"/>
</svg>

<svg xmlns="http://www.w3.org/2000/svg" width="48" height="48" version="1">
 <rect style="fill:#5aa9f0" width="40" height="40" x="-44" y="-44" rx="2" ry="2" transform="matrix(0,-1,-1,0,0,0)"/>
 <path fill="#fff" opacity=".2" d="m6 4c-1.108 0-2 0.892-2 2v1c0-1.108 0.892-2 2-2h36c1.108 0 2 0.892 2 2v-1c0-1.108-0.892-2-2-2h-36z"/>
 <path opacity=".2" d="m6 45c-1.108 0-2-0.892-2-2v-1c0 1.108 0.892 2 2 2h36c1.108 0 2-0.892 2-2v1c0 1.108-0.892 2-2 2h-36z"/>
 <path style="opacity:0.2;fill:#ffffff" d="m 20,29.080078 h 8 V 12.039062 c -0.159842,1.027522 -1.302734,1.041016 -1.302734,1.041016 0,0 -1.332032,6.42e-4 -1.332032,-1.273438 0,-1.27409 -0.333984,-1.726562 -1.333984,-1.726562 -1,0 -1.333984,0.452473 -1.333984,1.726562 0,1.27408 -1.332032,1.273438 -1.332032,1.273438 0,0 -1.333984,0.0016 -1.333984,-1.273438 0,0 -0.03125,12.654606 -0.03125,17.273438 z"/>
 <path style="opacity:0.5;fill:#ffffff" d="M 21.33334,16 C 21.33334,16 20,15.999 20,17.27408 V 26 h 8 V 17.27408 C 28,16 26.66667,16 26.66667,16 c 0,0 -1.33334,0 -1.33334,1.27408 C 25.33333,18.54817 25,19 24,19 23,19 22.66667,18.54817 22.66667,17.27408 22.66667,16 21.33334,16 21.33334,16 Z"/>
 <path style="opacity:0.2" d="m 24,22 c -1,0 -1.333984,0.454255 -1.333984,1.734375 C 22.666016,25.014486 21.333984,25 21.333984,25 21.333984,25 20,25.015472 20,23.734375 V 28 H 14 L 24,39 34,28 H 28 V 23.734375 C 28,25.014485 26.666016,25 26.666016,25 c 0,0 -1.332032,0.01449 -1.332032,-1.265625 C 25.333984,22.454256 25,22 24,22 Z"/>
 <path style="fill:#ffffff" d="m 24,21 c -1,0 -1.333984,0.454255 -1.333984,1.734375 C 22.666016,24.014486 21.333984,24 21.333984,24 21.333984,24 20,24.015472 20,22.734375 V 27 H 14 L 24,38 34,27 H 28 V 22.734375 C 28,24.014485 26.666016,24 26.666016,24 c 0,0 -1.332032,0.01449 -1.332032,-1.265625 C 25.333984,21.454256 25,21 24,21 Z"/>
</svg>
